X: 1
T: Polska efter Bellman
R: Polska
O: Hlsingland
S: Efter Gustav Jernberg
S: Efter hlsingespelman vid namn Bellman.
M: 3/4
K: D
L: 1/8
Z: 2008-09-02, Nils L
Ad dd/d/ ed | df fe1/2f1/2 gf | Ad dd/d/ ed | df fe1/2f1/2 gf | fa aa/a/ ba | 
a>g fg f2 | e>f gb ag | f>e dc dB | BA1/2G1/2 FE1/2F1/2 AA, | A,D D4 :| 
|: D2 a2 a>f | g1/2f1/2g1/2a1/2 b>a gf | e>f gb ag | f>e dc dB | BA1/2^G1/2 (GA) A2 | 
   D2 a2 a>f | g1/2f1/2g1/2a1/2 b>a gf | e>f gb ag | f>e dc dB | BA1/2G1/2 FE1/2F1/2 AA, | A,D D4 :|
